src/objects/clothing/1F484.svg

<svg id="emoji" viewBox="0 0 72 72" xmlns="http://www.w3.org/2000/svg">
  <g id="grid">
    <path fill="#b3b3b3" d="M68,4V68H4V4H68m4-4H0V72H72V0Z"/>
    <path fill="none" stroke="#00a5ff" stroke-miterlimit="10" stroke-width="0.1" d="M12.923,10.9583H59.0769A1.9231,1.9231,0,0,1,61,12.8814V59.0352a1.9231,1.9231,0,0,1-1.9231,1.9231H12.9231A1.9231,1.9231,0,0,1,11,59.0352V12.8813A1.923,1.923,0,0,1,12.923,10.9583Z"/>
    <rect x="16" y="4" rx="2.2537" ry="2.2537" width="40" height="64" fill="none" stroke="#00a5ff" stroke-miterlimit="10" stroke-width="0.1"/>
    <rect x="16" y="4" rx="2.2537" ry="2.2537" width="40" height="64" transform="translate(72) rotate(90)" fill="none" stroke="#00a5ff" stroke-miterlimit="10" stroke-width="0.1"/>
    <circle cx="36" cy="36" r="29" fill="none" stroke="#00a5ff" stroke-miterlimit="10" stroke-width="0.1"/>
  </g>
  <g id="color">
    <rect x="22.7104" y="47.8069" width="27.2896" height="19.1931" fill="#d0cfce"/>
    <polygon fill="#9b9b9a" points="41 42.609 41 67 50 67 50 43 41 42.609"/>
    <rect x="22.7104" y="42.6089" width="27.2896" height="5.198" fill="#d0cfce"/>
    <path fill="#ea5a47" d="M26.9084,42.4109H44.802V15.3193s-1-10.396-17.8936-9.0965Z"/>
    <path fill="#d22f27" d="M41,37V10a7.69,7.69,0,0,1,5,5V42.4109H40.9976Z"/>
    <path fill="#d22f27" d="M44.0352,15.4425c-1.0629,1.6832-5.3483.8857-9.5717-1.7813S27.6781,7.4676,28.741,5.7844C29.0857,5.2385,30.09,6.0449,31,6a11.395,11.395,0,0,1,7.3128,1.5656C42.5361,10.2327,45.0982,13.7592,44.0352,15.4425Z"/>
    <line x1="32.5" x2="32.5" y1="18.5" y2="31" fill="none" stroke="#fff" stroke-linecap="round" stroke-miterlimit="10" stroke-width="2"/>
  </g>
  <g id="line">
    <polyline fill="none" stroke="#000000" stroke-linecap="round" stroke-linejoin="round" stroke-width="2" points="23.328 66 23.328 42.609 29.12 42.609 50 42.609 50 66"/>
    <path fill="none" stroke="#000000" stroke-linecap="round" stroke-linejoin="round" stroke-width="2" d="M27.9084,38.5121V6.2228C43.33,4.3122,45,15.3193,45,15.3193L44.8967,38.386"/>
    <line x1="23.3285" x2="50" y1="48.3267" y2="48.3267" fill="none" stroke="#000000" stroke-miterlimit="10" stroke-width="2"/>
    <path fill="none" stroke="#000000" stroke-linecap="round" stroke-linejoin="round" stroke-width="2" d="M32,11a14.8428,14.8428,0,0,0,9,5"/>
  </g>
</svg>

<svg viewBox="0 0 72 72" xmlns="http://www.w3.org/2000/svg"><path fill="#b3b3b3" d="M68 4v64H4V4h64m4-4H0v72h72V0z"/><path fill="none" stroke="#00a5ff" stroke-miterlimit="10" stroke-width=".1" d="M12.923 10.958h46.154A1.923 1.923 0 0161 12.881v46.154a1.923 1.923 0 01-1.923 1.923H12.923A1.923 1.923 0 0111 59.035V12.881a1.923 1.923 0 011.923-1.923z"/><rect x="16" y="4" rx="2.254" ry="2.254" width="40" height="64" fill="none" stroke="#00a5ff" stroke-miterlimit="10" stroke-width=".1"/><rect x="16" y="4" rx="2.254" ry="2.254" width="40" height="64" transform="rotate(90 36 36)" fill="none" stroke="#00a5ff" stroke-miterlimit="10" stroke-width=".1"/><circle cx="36" cy="36" r="29" fill="none" stroke="#00a5ff" stroke-miterlimit="10" stroke-width=".1"/><path d="M23.328 66V42.609H50V66M27.908 38.512V6.222C43.33 4.313 45 15.32 45 15.32l-.103 23.067m-21.569 9.94H50M32 11a14.843 14.843 0 009 5" stroke-linecap="round" stroke-miterlimit="10" stroke-width="6" stroke="#fff" fill="none" stroke-linejoin="round"/><path fill="#d0cfce" d="M22.71 47.807H50V67H22.71z"/><path fill="#9b9b9a" d="M41 42.609V67h9V43l-9-.391z"/><path fill="#d0cfce" d="M22.71 42.609H50v5.198H22.71z"/><path fill="#ea5a47" d="M26.908 42.41h17.894V15.32s-1-10.397-17.894-9.097z"/><path fill="#d22f27" d="M41 37V10a7.69 7.69 0 015 5v27.41h-5.002z"/><path fill="#d22f27" d="M44.035 15.443c-1.063 1.683-5.348.885-9.571-1.782s-6.786-6.193-5.723-7.877c.345-.545 1.349.26 2.259.216a11.395 11.395 0 017.313 1.566c4.223 2.667 6.785 6.193 5.722 7.877z"/><path fill="none" stroke="#fff" stroke-linecap="round" stroke-miterlimit="10" stroke-width="2" d="M32.5 18.5V31"/><g fill="none" stroke="#000" stroke-width="2"><path stroke-linecap="round" stroke-linejoin="round" d="M23.328 66V42.609H50V66M27.908 38.512V6.222C43.33 4.313 45 15.32 45 15.32l-.103 23.067"/><path stroke-miterlimit="10" d="M23.328 48.327H50"/><path stroke-linecap="round" stroke-linejoin="round" d="M32 11a14.843 14.843 0 009 5"/></g></svg>
